app/img/icons/map-marker-2.svg

<svg width="52" height="69" viewBox="0 0 52 69" fill="none" xmlns="http://www.w3.org/2000/svg">
<path d="M23.3583 67.3312C4.06096 39.3557 0.479004 36.4845 0.479004 26.2031C0.479004 12.1198 11.8957 0.703125 25.979 0.703125C40.0623 0.703125 51.479 12.1198 51.479 26.2031C51.479 36.4845 47.8971 39.3557 28.5997 67.3312C27.3333 69.1605 24.6246 69.1604 23.3583 67.3312Z" fill="#D90002"/>
<ellipse cx="25.979" cy="26.3877" rx="20.9829" ry="21.4065" fill="white"/>
<path d="M35.5574 25.2373L26.4777 16.1408C26.4124 16.0751 26.3347 16.023 26.2492 15.9874C26.1637 15.9519 26.0721 15.9336 25.9796 15.9336C25.887 15.9336 25.7954 15.9519 25.7099 15.9874C25.6244 16.023 25.5468 16.0751 25.4814 16.1408L16.4017 25.2373C16.1372 25.5025 15.9873 25.8628 15.9873 26.2385C15.9873 27.0186 16.6199 27.6529 17.3981 27.6529H18.3548V34.1438C18.3548 34.535 18.67 34.851 19.0601 34.851H24.5688V29.9005H27.0376V34.851H32.899C33.2891 34.851 33.6044 34.535 33.6044 34.1438V27.6529H34.561C34.9358 27.6529 35.2951 27.5048 35.5596 27.2374C36.1085 26.6849 36.1085 25.7898 35.5574 25.2373V25.2373Z" fill="#D90002"/>
</svg>

<svg width="52" height="69" fill="none" xmlns="http://www.w3.org/2000/svg"><path d="M23.358 67.331C4.061 39.356.48 36.484.48 26.203c0-14.083 11.417-25.5 25.5-25.5s25.5 11.417 25.5 25.5c0 10.281-3.582 13.153-22.88 41.128-1.266 1.83-3.974 1.83-5.24 0z" fill="#D90002"/><ellipse cx="25.979" cy="26.388" rx="20.983" ry="21.407" fill="#fff"/><path d="M35.557 25.237l-9.08-9.096a.703.703 0 00-.996 0l-9.08 9.096a1.414 1.414 0 00.996 2.416h.958v6.49c0 .392.315.708.705.708h5.509v-4.95h2.469v4.95h5.861c.39 0 .705-.316.705-.707v-6.491h.957c.375 0 .734-.148.999-.416a1.418 1.418 0 00-.003-2z" fill="#D90002"/></svg>
